X: 8
T:Blackthorn Stick
R:Jig
C:(Al's Jig #2)
S:Kevin Briggs, Nottingham Music Database
M:6/8
L:1/8
Q:3/8=120
K:G
f|"G"gfg "C"ege|"G"dBG "C"AGE|"G"DGG "D7"FGA|"G"BAG "D7"A2d|"G"gfg "C"age|"G"dBG "C"AGE|"G"DGG "D7"FGA|"G"BGF G2:|
d|"G"edd gdd|edd gdd|ede "C"gfg|"Am"edB "D7"A2d|"G"gfg "C"age|"G"dBG "C"AGE|"G"DGG "D7"FGA|"G"BGF G2:|
